svg/logo/kakao_talk_line.svg

<?xml version="1.0" encoding="UTF-8"?>
<svg width="24px" height="24px" viewBox="0 0 24 24" version="1.1" xmlns="http://www.w3.org/2000/svg" xmlns:xlink="http://www.w3.org/1999/xlink">
    <title>kakao_talk_line</title>
    <g id="页面-1" stroke="none" stroke-width="1" fill="none" fill-rule="evenodd">
        <g id="Logo" transform="translate(-864.000000, -96.000000)" fill-rule="nonzero">
            <g id="kakao_talk_line" transform="translate(864.000000, 96.000000)">
                 <path d="M24,0 L24,24 L0,24 L0,0 L24,0 Z M12.5934901,23.257841 L12.5819402,23.2595131 L12.5108777,23.2950439 L12.4918791,23.2987469 L12.4918791,23.2987469 L12.4767152,23.2950439 L12.4056548,23.2595131 C12.3958229,23.2563662 12.3870493,23.2590235 12.3821421,23.2649074 L12.3780323,23.275831 L12.360941,23.7031097 L12.3658947,23.7234994 L12.3769048,23.7357139 L12.4804777,23.8096931 L12.4953491,23.8136134 L12.4953491,23.8136134 L12.5071152,23.8096931 L12.6106902,23.7357139 L12.6232938,23.7196733 L12.6232938,23.7196733 L12.6266527,23.7031097 L12.609561,23.275831 C12.6075724,23.2657013 12.6010112,23.2592993 12.5934901,23.257841 L12.5934901,23.257841 Z M12.8583906,23.1452862 L12.8445485,23.1473072 L12.6598443,23.2396597 L12.6498822,23.2499052 L12.6498822,23.2499052 L12.6471943,23.2611114 L12.6650943,23.6906389 L12.6699349,23.7034178 L12.6699349,23.7034178 L12.678386,23.7104931 L12.8793402,23.8032389 C12.8914285,23.8068999 12.9022333,23.8029875 12.9078286,23.7952264 L12.9118235,23.7811639 L12.8776777,23.1665331 C12.8752882,23.1545897 12.8674102,23.1470016 12.8583906,23.1452862 L12.8583906,23.1452862 Z M12.1430473,23.1473072 C12.1332178,23.1423925 12.1221763,23.1452606 12.1156365,23.1525954 L12.1099173,23.1665331 L12.0757714,23.7811639 C12.0751323,23.7926639 12.0828099,23.8018602 12.0926481,23.8045676 L12.108256,23.8032389 L12.3092106,23.7104931 L12.3186497,23.7024347 L12.3186497,23.7024347 L12.3225043,23.6906389 L12.340401,23.2611114 L12.337245,23.2485176 L12.337245,23.2485176 L12.3277531,23.2396597 L12.1430473,23.1473072 Z" id="MingCute" fill-rule="nonzero"></path>
                <path d="M12,3 C17.3444,3 22,6.64261 22,11.5 C22,16.3574 17.3444,20 12,20 C11.4747,20 10.9584,19.9656 10.454,19.8992 L7.5547,21.8321 C7.21817,22.0564 6.77962,22.0559 6.44356,21.8309 C6.1075,21.6058 5.9401,21.2005 6.01942,20.8039 L6.4637,18.5825 C3.8279,17.0914 2,14.5179 2,11.5 C2,6.64261 6.65561,3 12,3 Z M12,5 C7.40326,5 4,8.07312 4,11.5 C4,13.8354 5.5436,15.975 8.01658,17.135 C8.4333,17.3305 8.66278,17.7851 8.57251,18.2365 L8.45405,18.8288 L9.6653,18.0213 C9.87683,17.8803 10.1341,17.8251 10.3849,17.867 C10.9058,17.9541 11.4458,18 12,18 C16.5967,18 20,14.9269 20,11.5 C20,8.07312 16.5967,5 12,5 Z M10,7 C10.5523,7 11,7.44772 11,8 L11,12.485 L11.0087608,12.3676968 C11.032124,12.1921 11.10222,12.02138 11.2191,11.8753 L13.2191,9.37531 C13.5641,8.94404 14.1934,8.87412 14.6247,9.21913 C15.056,9.56414 15.1259,10.1934 14.7809,10.6247 L13.2806,12.5 L14.7809,14.3753 C15.1259,14.8066 15.056,15.4359 14.6247,15.7809 C14.1934,16.1259 13.5641,16.056 13.2191,15.6247 L11.2191,13.1247 C11.0763205,12.94625 11.0033559,12.7310301 11.0001131,12.5150679 L11,15 C11,15.5523 10.5523,16.0000657 10,16.0000657 C9.44772,16.0000657 9,15.5523 9,15 L9,8 C9,7.44772 9.44772,7 10,7 Z" id="形状" fill="#09244B"></path>
            </g>
        </g>
    </g>
</svg>

<svg xmlns="http://www.w3.org/2000/svg" width="24" height="24"><g fill="none" fill-rule="nonzero"><path d="M24 0v24H0V0h24ZM12.593 23.258l-.011.002-.071.035-.02.004-.014-.004-.071-.035c-.01-.004-.019-.001-.024.005l-.004.01-.017.428.005.02.01.013.104.074.015.004.012-.004.104-.074.012-.016.004-.017-.017-.427c-.002-.01-.009-.017-.017-.018Zm.265-.113-.013.002-.185.093-.01.01-.003.011.018.43.005.012.008.007.201.093c.012.004.023 0 .029-.008l.004-.014-.034-.614c-.003-.012-.01-.02-.02-.022Zm-.715.002a.023.023 0 0 0-.027.006l-.006.014-.034.614c0 .012.007.02.017.024l.015-.002.201-.093.01-.008.004-.011.017-.43-.003-.012-.01-.01-.184-.092Z"/><path fill="#09244B" d="M12 3c5.344 0 10 3.643 10 8.5S17.344 20 12 20c-.525 0-1.042-.034-1.546-.1l-2.9 1.932a1 1 0 0 1-1.535-1.028l.445-2.221C3.828 17.09 2 14.517 2 11.5 2 6.643 6.656 3 12 3Zm0 2c-4.597 0-8 3.073-8 6.5 0 2.335 1.544 4.475 4.017 5.635a1 1 0 0 1 .556 1.101l-.119.593 1.211-.808a1 1 0 0 1 .72-.154c.52.087 1.06.133 1.615.133 4.597 0 8-3.073 8-6.5S16.597 5 12 5Zm-2 2a1 1 0 0 1 1 1v4.485l.009-.117a.997.997 0 0 1 .21-.493l2-2.5a1 1 0 0 1 1.562 1.25l-1.5 1.875 1.5 1.875a1 1 0 1 1-1.562 1.25l-2-2.5a.998.998 0 0 1-.219-.61V15a1 1 0 1 1-2 0V8a1 1 0 0 1 1-1Z"/></g></svg>
